X: 4188
T: BOB WITH THE TWO HORNS
%R: reel
B: James Kerr "Merry Melodies" v.4 p.21 #188
Z: 2016 John Chambers <jc:trillian.mit.edu>
N: The 2nd strain has final repeat but no initial repeat; fixed.
M: C|
L: 1/8
K: Gm
|:\
d2(BG) ddBG | ccAF f2(=ef) |\
dcBA GBdg | dcBA (BG)G2 ::\
DGBG dGBG |
cBAG FGAF |\
[1 DGBG dGBG | dedc BGGF :|\
[2 GABc dcdg | dcBA (BG)G2 |]

%%sep 1 1 500
%%sep 1 1 500
%%center IRISH JIGS

%%sep 1 1 500
%%sep 1 1 500

